X:944031
T:The Sound of Silence 3Voice P1
H: 
B: https://musescore.com/georgewu/ptxsoundofsilence, https://musescore.com/abchords321/scores/5449091
C:Simon and Garfunkel (Pentatonix / disturbed)
O:Transcribed by Kevin Fraser
Z:Kevin Fraser
Q:1/4=90
K:AMix
%K:AMix sound=A_b
%K:{g}B{d}BMix score=_{g}B{e}A %concert Pitch
M:4/4
L:1/8
U: R = ///
U: r = //
I:MIDI=program 110
% I:linebreak $
%%MIDI gracedivider 100
V:M gstem=up stem=down name="Melody" sname=Melody
V:1 gstem=up stem=down name="Chord" sname=Ch
V:2 gstem=up stem=down name="Bass" sname=Bass 
V:3 gstem=up stem=down name="Piper 3" sname=P3 
V:4 gstem=up stem=down name="Piper 4" sname=P4 
V:BB gstem=up stem=down name="Brass Bass" sname="ABCD-C" transpose=-1  octave=-1 clef=bass
V:BC gstem=up stem=down name="Brass Chord" sname="ABCD-D" transpose=-1
V:BD gstem=up stem=down name="Brass Chord 2" sname="ABCD-B" transpose=-1
V:P gstem=up stem=down name="Piano" octave=-1
% %landscape off
%%landscape 
%%score {M 1 2}
% %barsperstaff 4
[V:M]                [| z2                  {g}A{d}A {g}c{d}c {g}e{G}e | {gde}d8-                                                       | dG                   {g}G{d}G {g}B{d}B {g}d{e}d | {gcd}c8-                                  | cA                        {g}A{d}A {g}c{d}c {g}e{G}e | $
[V:1]                [| z2                  {g}A{d}A {g}c{d}c {g}e{G}e | {gde}d8-                                                       | dG                   {g}G{d}G {g}B{d}B {g}d{e}d | {gcd}c8-                                  | cA                        {g}A{d}A {g}c{d}c {g}e{G}e | $
[V:2]                [| z2                  {g}A{d}A {g}c{d}c {g}e{G}e | {gde}d8-                                                       | dG                   {g}G{d}G {g}B{d}B {g}d{e}d | {gcd}c8-                                  | cA                        {g}A{d}A {g}c{d}c {g}e{G}e | $
w:         Hel-lo   dark-ness my old | friend   | -I've come to  talk with you  a  | gain      | - be cause a   vision softly | cre-ep-ing        |   -  left its seeds while I was |  sle-ep-ing |  $
% %barsperstaff 5
[V:1] {g}d2{c}d{e}c-c4-                   | {g}c8                                       |      {g}d2{c}d{e}c-c4                                                   |  [M:2/4]             {AGAG}A2 {gef}e2           | 
[V:M] {g}f2{A}f{g}e-e4-                   | e2              {g}A{d}A {g}c{d}c {g}e{G}e |  {g}f2{A}f{g}e-e4-                                       |  [M:2/4]             e2 {g}A{d}A                |
[V:2] {g}A8-                              | {g}A8                                      |  {g}A8                                      |  [M:2/4]             {gcd}c4                    | 
% %barsperstaff 5
[V:M]                  [M:4/4]                           {g}f{g}f- f2- f2 {g} fg      | {g}a{g}a-            a2 {f}gf- f{gef}e-         | e4-                       e2 fe-          | {gcd}c8-                                             | [M:2/4]cA          {g}A{d}A         | [M:4/4]         e6- eG                     |  Af-                     f6-                 |] 
w:    |                                   - and the                    |        vision   - - -       that was                      | planted   in   my brain                         | - - still     re-                         | mains                                                | -     within the                    |        sound   of | silence     | $
[V:1]                  [M:4/4]                           {gde}d4 {g}d2 G2             | {gAGAG}A8                                       | {AGAG}A4                  {gcd}c4         | {gef}e4                   e2 f2-                     | [M:2/4]            f4               | [M:4/4]         {g}c8                      |  Ac                      GB Ac Bd            |] 
[V:2]                  [M:4/4]                           {AGAG}A4- A2 d2              | {gfg}f4-             {gde}d4                    | {gcd}c4                   {AGAG}A4        | {AGAG}A4                  G2 A2-                     | [M:2/4]            A4               | [M:4/4]         {g}A8                      |  c2                      B2 c2 d2            |] 
W: Use Gracenotes or Strikes to separate repeated notes that don't have gracenote separators.

